src/main/web/img/tags_s.svg

<svg width="15" height="15" xmlns="http://www.w3.org/2000/svg" style="fill-rule:evenodd"><path style="fill:url(#a)" d="M1 1h13v13H1z"/><path d="M14 1H1v13h13V1zm-1 1v11H2V2h11z" style="fill:url(#b)"/><path d="M15 15V0H0v15h15zM14 1H1v13h13V1z" style="fill:url(#c)"/><path d="M5 5h2v1h1V5h2v2H9v1h1v2H8V9H7v1H5V8h1V7H5V5zm2-2h1v1h3v3h1v1h-1v3H8v1H7v-1H4V8H3V7h1V4h3V3z" style="fill:#fff"/><defs><linearGradient id="b" x1="0" y1="0" x2="1" y2="0" gradientUnits="userSpaceOnUse" gradientTransform="matrix(5 13 -13 5 5 1)"><stop offset="0" style="stop-color:#fdfdfe;stop-opacity:1"/><stop offset="1" style="stop-color:#c4ccd3;stop-opacity:1"/></linearGradient><linearGradient id="c" x1="0" y1="0" x2="1" y2="0" gradientUnits="userSpaceOnUse" gradientTransform="matrix(7 15 -15 7 3 0)"><stop offset="0" style="stop-color:#979ea4;stop-opacity:1"/><stop offset="1" style="stop-color:#6a87a0;stop-opacity:1"/></linearGradient><radialGradient id="a" cx="0" cy="0" r="1" gradientUnits="userSpaceOnUse" gradientTransform="matrix(10 6 -6 10 4 1)"><stop offset="0" style="stop-color:#a4bdd5;stop-opacity:1"/><stop offset="1" style="stop-color:#6a87a0;stop-opacity:1"/></radialGradient></defs></svg>

<?xml version="1.0" encoding="UTF-8" standalone="no"?>
<!DOCTYPE svg PUBLIC "-//W3C//DTD SVG 1.1//EN" "http://www.w3.org/Graphics/SVG/1.1/DTD/svg11.dtd">
<svg width="16px" height="16px" version="1.1" xmlns="http://www.w3.org/2000/svg" xmlns:xlink="http://www.w3.org/1999/xlink" xml:space="preserve" xmlns:serif="http://www.serif.com/" style="fill-rule:evenodd;clip-rule:evenodd;stroke-linejoin:round;stroke-miterlimit:2;">
    <rect x="1" y="1" width="13" height="13" style="fill:url(#_Radial1);"/>
    <path d="M14,1L1,1L1,14L14,14L14,1ZM13,2L13,13C13,13 2,13 2,13C2,13 2,2 2,2L13,2Z" style="fill:url(#_Linear2);"/>
    <path d="M15,15L15,0L-0,0L0,15L15,15ZM14,1L1,1L1,14L14,14L14,1Z" style="fill:url(#_Linear3);"/>
    <path d="M5,5L7,5L7,6L8,6L8,5L10,5L10,7L9,7L9,8L10,8L10,10L8,10L8,9L7,9L7,10L5,10L5,8L6,8L6,7L5,7L5,5ZM7,3L8,3L8,4L11,4L11,7L12,7L12,8L11,8L11,11L8,11L8,12L7,12L7,11L4,11L4,8L3,8L3,7L4,7L4,4L7,4L7,3Z" style="fill:#fff;"/>
    <defs>
        <radialGradient id="_Radial1" cx="0" cy="0" r="1" gradientUnits="userSpaceOnUse" gradientTransform="matrix(10,6,-6,10,4,1)"><stop offset="0" style="stop-color:#a4bdd5;stop-opacity:1"/><stop offset="1" style="stop-color:#6a87a0;stop-opacity:1"/></radialGradient>
        <linearGradient id="_Linear2" x1="0" y1="0" x2="1" y2="0" gradientUnits="userSpaceOnUse" gradientTransform="matrix(5,13,-13,5,5,1)"><stop offset="0" style="stop-color:#fdfdfe;stop-opacity:1"/><stop offset="1" style="stop-color:#c4ccd3;stop-opacity:1"/></linearGradient>
        <linearGradient id="_Linear3" x1="0" y1="0" x2="1" y2="0" gradientUnits="userSpaceOnUse" gradientTransform="matrix(7,15,-15,7,3,0)"><stop offset="0" style="stop-color:#979ea4;stop-opacity:1"/><stop offset="1" style="stop-color:#6a87a0;stop-opacity:1"/></linearGradient>
    </defs>
</svg>
